X: 32690
T: Policeman's Holiday, The
R: jig
M: 6/8
K: Gmajor
|:ge|dBG B,DG|Bdd dBG|e^cA A,^CE|A^ce gfe|
dBG B,DG|Bdd dcB|A^ce agd|fed d:|
ef|gea fdg|ece dBG|GBd gfe|dBG GBd|
gea fdg|ece dcB|A^ce agd|fed d:|
|:^c=c|B=c^c dbf|agd fe^d|dbf agd|fed bge|
dbf agd|Bag gdB|A^ce agd|fed d:|

